img/section4-1-clientes.svg

<svg fill="none" height="73" viewBox="0 0 73 73" width="73" xmlns="http://www.w3.org/2000/svg"><g fill="#b5bd00"><path d="m36.2574 69.8703c-7.751-.0201-15.2554-2.7262-21.2356-7.6574-5.98006-4.9313-10.0661-11.7829-11.56235-19.3882-1.49626-7.6052-.31022-15.494 3.35617-22.3231 3.66638-6.8291 9.58648-12.17634 16.75218-15.13119 7.1658-2.95485 15.1342-3.33467 22.5485-1.07478 7.4143 2.25988 13.8161 7.01977 18.1154 13.46917s6.2303 14.1896 5.4642 21.9027c-.7661 7.7132-4.1819 14.9223-9.6658 20.4-3.1197 3.1218-6.8264 5.5952-10.9065 7.2776-4.0801 1.6825-8.4528 2.5407-12.8662 2.5252zm25.7898-59.2366c-5.086-5.08026-11.5639-8.53867-18.6149-9.93812s-14.3587-.6771191-20.9993 2.07569c-6.6406 2.75281-12.316 7.41253-16.30894 13.39013-3.99292 5.9777-6.12406 13.0049-6.12406 20.1935 0 7.1885 2.13114 14.2157 6.12406 20.1934 3.99294 5.9776 9.66834 10.6373 16.30894 13.3901 6.6406 2.7529 13.9483 3.4752 20.9993 2.0757 7.051-1.3994 13.5289-4.8578 18.6149-9.9381 3.3899-3.3709 6.08-7.3786 7.9157-11.7928s2.7807-9.1477 2.7807-13.9283c0-4.7807-.945-9.5142-2.7807-13.9284-1.8357-4.4141-4.5258-8.4219-7.9157-11.7928z"/><path d="m56.043 16.6201c-5.2576-5.2283-12.3708-8.16307-19.7855-8.16307s-14.5279 2.93477-19.7855 8.16307c-2.2884 2.2753-4.161 4.9335-5.5331 7.8543-.151.3392-.1633.7241-.0342 1.0723.129.3482.3892.6321.7248.7909.3357.1589.7202.1801 1.0713.0592s.641-.3743.8076-.7062c2.5528-5.4351 6.9717-9.7734 12.4528-12.2258 5.4812-2.4525 11.6605-2.8561 17.4141-1.1376 5.7536 1.7186 10.6993 5.4452 13.9375 10.502 3.2381 5.0568 4.5538 11.1079 3.7075 17.0528-.8463 5.9448-3.7982 11.3885-8.3189 15.3408-4.5206 3.9523-10.3098 6.1508-16.3144 6.1955-6.0046.0448-11.8258-2.0672-16.4049-5.9517-4.579-3.8846-7.6117-9.2836-8.5465-15.2152-.0687-.3628-.2755-.6847-.5768-.8981s-.6736-.3017-1.03857-.2462c-.36501.0555-.69429.2504-.91856.5436-.22427.2933-.32607.6622-.28396 1.0289 1.03901 6.5766 4.39489 12.5651 9.46189 16.8845 5.067 4.3193 11.5112 6.6849 18.1693 6.6698 5.5234.0125 10.9261-1.6148 15.5237-4.6758 4.5975-3.061 8.183-7.4178 10.302-12.5185 2.119-5.1008 2.6761-10.7157 1.6008-16.1333-1.0753-5.4177-3.7346-10.3942-7.6409-14.299"/><path d="m10.0401 33.6307c.301-.0006.594-.0967.8368-.2745.2429-.1778.4231-.4281.5146-.7148.0916-.2867.0897-.5951-.0051-.8807-.0949-.2857-.278-.5338-.5229-.7088-.2449-.1749-.5391-.2676-.84-.2647-.30099.0028-.59327.1012-.8348.2807-.24153.1796-.41985.4312-.50927.7186s-.08533.5957.01167.8807c.09804.2801.2803.523.5218.6955s.53044.2662.8272.268z"/><path d="m55.6395 35.0531c.0559-.2881.0212-.5864-.0992-.854-.1203-.2676-.3206-.4914-.5732-.6407-.249-.146-.5364-.2135-.8244-.1937-.2881.0199-.5634.1262-.7901.3051-.2298.1843-.3967.4354-.4776.7187-.0809.2832-.0718.5846.026.8625.0977.2779.2794.5185.5199.6887.2405.1701.5279.2614.8225.2611.3288-.003.6467-.1185.9007-.3273.254-.2089.4289-.4984.4954-.8204z"/><path d="m32.3774 46.594h7.7643c2.1413 0 4.03 1.6402 4.5953 3.9185-2.4172 1.3289-5.1039 2.0932-7.8586 2.2355-2.8346.1714-5.666-.3828-8.2268-1.6102-.3084-.1542-.6039-.3212-.8994-.4925.5268-2.3469 2.424-4.0513 4.6252-4.0513zm17.6614-23.9825c-2.5281-2.5266-5.7042-4.3068-9.1789-5.1446-3.4746-.8377-7.113-.7006-10.5148.3963-3.4017 1.0968-6.4349 3.111-8.7657 5.8207-2.3307 2.7097-3.8687 6.0099-4.4447 9.5374-.5759 3.5275-.1675 7.1455 1.1804 10.4559 1.3478 3.3103 3.5828 6.1846 6.459 8.3065s6.2821 3.4091 9.8428 3.72c3.5606.311 7.138-.3665 10.3385-1.9578 4.4369-2.2305 7.8678-6.0545 9.6058-10.7065.233-.4874.3064-1.0359.2099-1.5674-.07-.2091-.1895-.3981-.3483-.551s-.3523-.2651-.5639-.3269c-.184-.0646-.38-.0878-.574-.0678s-.3811.0826-.5481.1834c-.531.3383-.7537.985-.9764 1.5717-.9217 2.4726-2.4399 4.6792-4.4196 6.4239-.5435-1.4832-1.5226-2.7676-2.8088-3.6846-1.2862-.9171-2.8195-1.4241-4.3988-1.4545h-7.7815c-3.2076 0-6.017 2.107-7.2033 5.1648-1.7851-1.6231-3.2024-3.6093-4.1567-5.8252-.9544-2.2159-1.4236-4.6104-1.3764-7.0226.107-3.7045 1.4474-7.2674 3.8088-10.1237 2.3614-2.8564 5.6086-4.8428 9.227-5.6443 3.6183-.8016 7.4007-.3725 10.7475 1.2194 3.3468 1.5918 6.0665 4.2552 7.728 7.568.0843.1687.2011.3192.3436.4428s.308.2179.4869.2775c.179.0597.3679.0835.5561.0701.1881-.0133.3718-.0636.5405-.148.1688-.0844.3192-.2011.4428-.3436s.2179-.308.2776-.4869c.0596-.179.0834-.368.0701-.5561-.0134-.1882-.0637-.3719-.1481-.5406-.9337-1.8579-2.1615-3.5528-3.6359-5.0192"/><path d="m40.8182 32.9721c.0026.9035-.263 1.7874-.7631 2.5398-.5001.7525-1.2122 1.3396-2.0462 1.6871-.8339.3475-1.7522.4398-2.6386.2651-.8865-.1747-1.7011-.6085-2.3409-1.2465-.6397-.6379-1.0758-1.4513-1.253-2.3372-.1772-.886-.0875-1.8045.2576-2.6395.3452-.8349.9303-1.5486 1.6813-2.0509.7511-.5022 1.6342-.7702 2.5377-.7702 1.2089-.0012 2.3688.4777 3.2248 1.3313s1.3381 2.0122 1.3404 3.221zm-12.1668 0c-.0042 1.5054.4383 2.9782 1.2717 4.2319.8333 1.2537 2.02 2.2319 3.4096 2.8107 1.3897.5788 2.9199.7323 4.3968.4409s2.8342-1.0145 3.8998-2.0778c1.0657-1.0633 1.7919-2.4189 2.0866-3.8951.2947-1.4763.1448-3.0068-.4309-4.3978-.5757-1.3909-1.5512-2.5798-2.803-3.416-1.2518-.8361-2.7236-1.282-4.229-1.2812-2.0135-.0011-3.945.797-5.3704 2.2191-1.4253 1.4222-2.2278 3.3519-2.2312 5.3653z"/></g></svg>

<svg width="73" height="73" viewBox="0 0 73 73" fill="none" xmlns="http://www.w3.org/2000/svg">
<path d="M36.2574 69.8703C28.5064 69.8502 21.002 67.1441 15.0218 62.2129C9.04174 57.2816 4.9557 50.43 3.45945 42.8247C1.96319 35.2195 3.14923 27.3307 6.81562 20.5016C10.482 13.6725 16.4021 8.32526 23.5678 5.37041C30.7336 2.41556 38.702 2.03574 46.1163 4.29563C53.5306 6.55551 59.9324 11.3154 64.2317 17.7648C68.531 24.2142 70.462 31.9544 69.6959 39.6675C68.9298 47.3807 65.514 54.5898 60.0301 60.0675C56.9104 63.1893 53.2037 65.6627 49.1236 67.3451C45.0435 69.0276 40.6708 69.8858 36.2574 69.8703ZM62.0472 10.6337C56.9612 5.55344 50.4833 2.09503 43.4323 0.69558C36.3813 -0.70387 29.0736 0.0184609 22.433 2.77127C15.7924 5.52408 10.117 10.1838 6.12406 16.1614C2.13114 22.1391 0 29.1663 0 36.3549C0 43.5434 2.13114 50.5706 6.12406 56.5483C10.117 62.5259 15.7924 67.1856 22.433 69.9384C29.0736 72.6913 36.3813 73.4136 43.4323 72.0141C50.4833 70.6147 56.9612 67.1563 62.0472 62.076C65.4371 58.7051 68.1272 54.6974 69.9629 50.2832C71.7986 45.869 72.7436 41.1355 72.7436 36.3549C72.7436 31.5742 71.7986 26.8407 69.9629 22.4265C68.1272 18.0124 65.4371 14.0046 62.0472 10.6337Z" fill="#B5BD00"/>
<path d="M56.043 16.6201C50.7854 11.3918 43.6722 8.45703 36.2575 8.45703C28.8428 8.45703 21.7296 11.3918 16.472 16.6201C14.1836 18.8954 12.311 21.5536 10.9389 24.4744C10.7879 24.8136 10.7756 25.1985 10.9047 25.5467C11.0337 25.8949 11.2939 26.1788 11.6295 26.3376C11.9652 26.4965 12.3497 26.5177 12.7008 26.3968C13.0519 26.2759 13.3418 26.0225 13.5084 25.6906C16.0612 20.2555 20.4801 15.9172 25.9612 13.4648C31.4424 11.0123 37.6217 10.6087 43.3753 12.3272C49.1289 14.0458 54.0746 17.7724 57.3128 22.8292C60.5509 27.886 61.8666 33.9371 61.0203 39.882C60.174 45.8268 57.2221 51.2705 52.7014 55.2228C48.1808 59.1751 42.3916 61.3736 36.387 61.4183C30.3824 61.4631 24.5612 59.3511 19.9821 55.4666C15.4031 51.582 12.3704 46.183 11.4356 40.2514C11.3669 39.8886 11.1601 39.5667 10.8588 39.3533C10.5575 39.1399 10.1852 39.0516 9.82023 39.1071C9.45522 39.1626 9.12594 39.3575 8.90167 39.6507C8.6774 39.944 8.5756 40.3129 8.61771 40.6796C9.65672 47.2562 13.0126 53.2447 18.0796 57.5641C23.1466 61.8834 29.5908 64.249 36.2489 64.2339C41.7723 64.2464 47.175 62.6191 51.7726 59.5581C56.3701 56.4971 59.9556 52.1403 62.0746 47.0396C64.1936 41.9388 64.7507 36.3239 63.6754 30.9063C62.6001 25.4886 59.9408 20.5121 56.0345 16.6073" fill="#B5BD00"/>
<path d="M10.0401 33.6307C10.3411 33.6301 10.6341 33.534 10.8769 33.3562C11.1198 33.1784 11.3 32.9281 11.3915 32.6414C11.4831 32.3547 11.4812 32.0463 11.3864 31.7607C11.2915 31.475 11.1084 31.2269 10.8635 31.0519C10.6186 30.877 10.3244 30.7843 10.0235 30.7872C9.72251 30.79 9.43023 30.8884 9.1887 31.0679C8.94717 31.2475 8.76885 31.4991 8.67943 31.7865C8.59001 32.0739 8.5941 32.3822 8.6911 32.6672C8.78914 32.9473 8.9714 33.1902 9.2129 33.3627C9.4544 33.5352 9.74334 33.6289 10.0401 33.6307Z" fill="#B5BD00"/>
<path d="M55.6395 35.0531C55.6954 34.765 55.6607 34.4667 55.5403 34.1991C55.42 33.9315 55.2197 33.7077 54.9671 33.5584C54.7181 33.4124 54.4307 33.3449 54.1427 33.3647C53.8546 33.3846 53.5793 33.4909 53.3526 33.6698C53.1228 33.8541 52.9559 34.1052 52.875 34.3885C52.7941 34.6717 52.8032 34.9731 52.901 35.251C52.9987 35.5289 53.1804 35.7695 53.4209 35.9397C53.6614 36.1098 53.9488 36.2011 54.2434 36.2008C54.5722 36.1978 54.8901 36.0823 55.1441 35.8735C55.3981 35.6646 55.573 35.3751 55.6395 35.0531Z" fill="#B5BD00"/>
<path d="M32.3774 46.594H40.1417C42.283 46.594 44.1717 48.2342 44.737 50.5125C42.3198 51.8414 39.6331 52.6057 36.8784 52.748C34.0438 52.9194 31.2124 52.3652 28.6516 51.1378C28.3432 50.9836 28.0477 50.8166 27.7522 50.6453C28.279 48.2984 30.1762 46.594 32.3774 46.594ZM50.0388 22.6115C47.5107 20.0849 44.3346 18.3047 40.8599 17.4669C37.3853 16.6292 33.7469 16.7663 30.3451 17.8632C26.9434 18.96 23.9102 20.9742 21.5794 23.6839C19.2487 26.3936 17.7107 29.6938 17.1347 33.2213C16.5588 36.7488 16.9672 40.3668 18.3151 43.6772C19.6629 46.9875 21.8979 49.8618 24.7741 51.9837C27.6503 54.1056 31.0562 55.3928 34.6169 55.7037C38.1775 56.0147 41.7549 55.3372 44.9554 53.7459C49.3923 51.5154 52.8232 47.6914 54.5612 43.0394C54.7942 42.552 54.8676 42.0035 54.7711 41.472C54.7011 41.2629 54.5816 41.0739 54.4228 40.921C54.264 40.7681 54.0705 40.6559 53.8589 40.5941C53.6749 40.5295 53.4789 40.5063 53.2849 40.5263C53.0909 40.5463 52.9038 40.6089 52.7368 40.7097C52.2058 41.048 51.9831 41.6947 51.7604 42.2814C50.8387 44.754 49.3205 46.9606 47.3408 48.7053C46.7973 47.2221 45.8182 45.9377 44.532 45.0207C43.2458 44.1036 41.7125 43.5966 40.1332 43.5662H32.3517C29.1441 43.5662 26.3347 45.6732 25.1484 48.731C23.3633 47.1079 21.946 45.1217 20.9917 42.9058C20.0373 40.6899 19.5681 38.2954 19.6153 35.8832C19.7223 32.1787 21.0627 28.6158 23.4241 25.7595C25.7855 22.9031 29.0327 20.9167 32.6511 20.1152C36.2694 19.3136 40.0518 19.7427 43.3986 21.3346C46.7454 22.9264 49.4651 25.5898 51.1266 28.9026C51.2109 29.0713 51.3277 29.2218 51.4702 29.3454C51.6127 29.469 51.7782 29.5633 51.9571 29.6229C52.1361 29.6826 52.325 29.7064 52.5132 29.693C52.7013 29.6797 52.885 29.6294 53.0537 29.545C53.2225 29.4606 53.3729 29.3439 53.4965 29.2014C53.6201 29.0589 53.7144 28.8934 53.7741 28.7145C53.8337 28.5355 53.8575 28.3465 53.8442 28.1584C53.8308 27.9702 53.7805 27.7865 53.6961 27.6178C52.7624 25.7599 51.5346 24.065 50.0602 22.5986" fill="#B5BD00"/>
<path d="M40.8182 32.9721C40.8208 33.8756 40.5552 34.7595 40.0551 35.5119C39.555 36.2644 38.8429 36.8515 38.0089 37.199C37.175 37.5465 36.2567 37.6388 35.3703 37.4641C34.4838 37.2894 33.6692 36.8556 33.0294 36.2176C32.3897 35.5797 31.9536 34.7663 31.7764 33.8804C31.5992 32.9944 31.6889 32.0759 32.034 31.2409C32.3792 30.406 32.9643 29.6923 33.7153 29.19C34.4664 28.6878 35.3495 28.4198 36.253 28.4198C37.4619 28.4186 38.6218 28.8975 39.4778 29.7511C40.3338 30.6047 40.8159 31.7633 40.8182 32.9721ZM28.6514 32.9721C28.6472 34.4775 29.0897 35.9503 29.9231 37.204C30.7564 38.4577 31.9431 39.4359 33.3327 40.0147C34.7224 40.5935 36.2526 40.747 37.7295 40.4556C39.2064 40.1642 40.5637 39.4411 41.6293 38.3778C42.695 37.3145 43.4212 35.9589 43.7159 34.4827C44.0106 33.0064 43.8607 31.4759 43.285 30.0849C42.7093 28.694 41.7338 27.5051 40.482 26.6689C39.2302 25.8328 37.7584 25.3869 36.253 25.3877C34.2395 25.3866 32.308 26.1847 30.8826 27.6068C29.4573 29.029 28.6548 30.9587 28.6514 32.9721Z" fill="#B5BD00"/>
</svg>
